imgs/whatsdifferent/zero.svg

<?xml version="1.0" encoding="UTF-8"?>
<svg width="45px" height="45px" viewBox="0 0 45 45" version="1.1" xmlns="http://www.w3.org/2000/svg" xmlns:xlink="http://www.w3.org/1999/xlink">
    <!-- Generator: Sketch 48.1 (47250) - http://www.bohemiancoding.com/sketch -->
    <title>Zero Dependency</title>
    <desc>Created with Sketch.</desc>
    <defs></defs>
    <g id="Symbols" stroke="none" stroke-width="1" fill="none" fill-rule="evenodd">
        <g id="Zero-Dependency" fill="#E1BE7E" fill-rule="nonzero">
            <g id="002-flag" transform="translate(17.000000, 3.000000)">
                <path d="M21.7102771,11.1596155 C21.8917753,11.2430916 22.0057741,11.424862 21.9997742,11.6224385 C21.9937742,11.8195211 21.8692755,11.9948702 21.6827774,12.0669857 L3.69288681,19.7576515 L3.69288681,37.9279786 C3.69288681,38.2011282 1.86645322,39 1.59045606,39 C1.31445889,39 0,38.2011282 0,37.9279786 L0,19.7576515 L0,18.2758276 L0,1.97576515 L0,0.493941288 C0,0.220791756 0.223997701,0 0.499994868,0 C0.775992035,0 0.999989735,0.220791756 0.999989735,0.493941288 L0.999989735,1.66063061 L21.7102771,11.1596155 Z" id="Shape"></path>
            </g>
        </g>
    </g>
</svg>

<?xml version="1.0" encoding="utf-8"?>
<!-- Generator: Adobe Illustrator 16.0.0, SVG Export Plug-In . SVG Version: 6.00 Build 0)  -->
<!DOCTYPE svg PUBLIC "-//W3C//DTD SVG 1.1//EN" "http://www.w3.org/Graphics/SVG/1.1/DTD/svg11.dtd">
<svg version="1.1" id="Layer_1" xmlns="http://www.w3.org/2000/svg" xmlns:xlink="http://www.w3.org/1999/xlink" x="0px" y="0px"
	 width="45px" height="45px" viewBox="0 0 45 45" enable-background="new 0 0 45 45" xml:space="preserve">
<title>Zero Dependency</title>
<desc>Created with Sketch.</desc>
<g id="Symbols">
	<g id="Zero-Dependency">
		<g id="_x30_02-flag" transform="translate(17.000000, 3.000000)">
			<path id="Shape" fill="#00D4DB" d="M21.711,11.16c0.181,0.083,0.295,0.265,0.289,0.463c-0.006,0.197-0.131,0.373-0.317,0.444
				l-17.99,7.691v18.17C3.693,38.201,1.866,39,1.59,39S0,38.201,0,37.928v-18.17v-1.482v-16.3V0.494C0,0.221,0.224,0,0.5,0
				S1,0.221,1,0.494v1.167L21.711,11.16z"/>
		</g>
	</g>
</g>
</svg>
